X:1
P: Green Mountain Petronella
C: from R. Miller/New England Fiddlers Repertoire
C: Arr. T. Traub 8-10-03
R: reel
M: 4/4
K: G
L: 1/8
|: GE|"G"D2 G2 GFGE|"G"D2 B2 B3 d|"Am"c2 A2 "D"ABcd|"G"e2 d2 "D"d^c d2|"G"D2 G2 GFGE|
"G"D2 B2 B3 d|"D"c2 A2 AGAc|"G"B2 G2 G2 :||: Bd|"G"g2 g2 "D"f2 f2|"C"efge "G"d2 d2|
"C"edef gfgd|"D"B2 A2 A2 Bd|"Em"g2 g2 "D"f2 f2|"C"efge "G"d2 Bd|"C"edef "D"gfgd|"G"B2 G2 G2 :|
